X:1
T:Title
%%score [ ( 1 2 ) ( 3 4 ) ] { ( 5 6 ) | 7 }
L:1/8
Q:1/4=120
M:4/4
K:C
V:1 treble nm="Midi_74"
V:2 treble 
V:3 bass nm="Midi_74"
V:4 bass 
V:5 treble nm="Org."
V:6 treble 
V:7 bass 
V:1
 c8 | c4 d4 | B8 || (c6 G2) | A4 E4 | (F2 E2) (D2 C2) | G8 || d8 | d4 e4 | ^c8 || (d6 A2) | B4 c4 | %12
"^William Henry Havergal\n(1793-1870)" (e2 d2) (c2 B2) | c8 |] %14
V:2
 (E6 A2) | G4 F4 | G8 || G8 | F4 C4 | C4 (A,2 C2) | (B,4 D4) || (F6 _B2) | A4 G4 | A8 || F8 | %11
 F4 E4 | (G2 F2) (E2 D2) | E8 |] %14
V:3
 C8 | (C2 G,2) A,4 | G,8 || C8 | C4 C4 | A,4 A,4 | (G,4 B,4) || D8 | (D2 A,2) _B,4 | A,8 || D8 | %11
 D4 C4 | A,4 G,4 | G,8 |] %14
V:4
 (C,6 F,2) | E,4 D,4 | G,8 || E,8 | F,4 A,4 | F,4 ^F,4 | G,8 || (D,6 G,2) | F,4 E,4 | A,8 || F,8 | %11
 G,4 A,4 | F,4 G,4 | C,8 |] %14
V:5
 [Cc]8 | c4 d4 | B8 || c6 G2 | A4 E4 | F2 E2 D2 C2 | G8 || [Dd]8 | d4 e4 | ^c8 || d6 A2 | B4 c4 | %12
 e2 d2 c2 B2 | c8 |] %14
V:6
 E6 A2 | [CG]4 [FA]4 | [DG]8 || [CG]8 | [CF]4 C4 | C4 A,4 | B,8 || F6 _B2 | [DA]4 [G_B]4 | [EA]8 || %10
 [DA]8 | [DF]4 [CE]4 | G2 F2 E2 D2 | E8 |] %14
V:7
 C,6 F,2 | E,4 D,4 | G,8 || E,8 | F,4 A,4 | F,4 ^F,4 | G,8 || D,6 G,2 | F,4 E,4 | A,8 || F,8 | %11
 G,4 A,4 | F,4 G,4 | [C,G,]8 |] %14

